X:1
T:With Heart and Voice
T:With Heart and Voice
T:Samuel William Beazley
T:Lizzie Douglas Foulks DeArmond, 1909
T:Public Domain Courtesy of the Cyber Hymnal™
T:Public Domain Courtesy of the Cyber Hymnal™
C:Samuel William Beazley
Z:Public Domain
Z:Courtesy of the Cyber Hymnal™
%%score ( 1 2 ) ( 3 4 )
L:1/8
Q:1/4=100
M:6/8
K:Bb
V:1 treble 
V:2 treble 
V:3 bass 
V:4 bass 
V:1
 [DF]2 [^C=E] [DF]2 [_EG] | [DF]2 [DB] [Fd]3 | [Ec][EB][EG] [Ec][EB][E_G] | [DB]6 | %4
w: 1.~Praise the Lord with|heart and voice,|Joy- ful- ly serv- ing your|king;|
w: 2.~Praise the dear Re-|deem- er’s name,|Crown Him with beau- ty and|light;|
w: 3.~Praise the Lord with|heart and voice,|Ev- er a- dor- ing- ly|raise|
 [DF]2 [^C=E] [DF]2 [_EG] | [DF]2 [DB] [Fd]3 | [=Ec][EB][EA] [EG][EA][EB] | [Ec]6 | %8
w: Come and wor- ship|at His throne,|Lov- ing- ly, grate- ful- ly|sing;|
w: Just and true are|all His ways,|Won- der- ful, bound- less His|might;|
w: Hal- le- lu- jahs|sweet and strong|Un- to the “An- cient of|Days”;|
 [^Fd]2 [Fe] z [Fd]2 [FA] | c3 B3 | [=Ec]2 [Ed] [Ec]2 [EG] | B3 A3 | FGA Bcd | e2 G [Gd]2 [Gc] | %14
w: Hap- py ev- ery|ho- ur,|trust- ing to His|pow- er,|Un- to the Giv- er of|our sal- va- tion|
w: Glad ho- san- nas|swell- ing,|Loud His good- ness|tell- ing;|Fount- ain of bless- ing, our|joy e- ter- nal,|
w: Shout with ac- cla-|ma- tion;|Hail Him, all cre-|a- tion;|Wor- ship Je- ho- vah, O|come re- joic- ing,|
 [FB]3 [EA]3 | [DB]6 ||"^Refrain" [DFB]3 [DFA]3 | [B,EG]2 A GFD | ([B,DF]3 F2) G | [B,DF]6 | %20
w: Prais- es|bring.|||||
w: Day and|night.|Praise Him!|sing with mel- o- dy,|heart * and|voice;|
w: Sound His|praise.|||||
 B3 A3 | G2 A GFD | ([A,EF]3 F2) G | [A,EF]6 | [DFd]3 [D^Fc]3 | [DGB]2 A GAB | [CFc]3 [C=EB]3 | %27
w: |||||||
w: Praise Him|ev- er- last- ing- ly,|come, * re-|joice;|Hail Him,|Lord most glo- ri- ous,|Might- y|
w: |||||||
 [CFA]2 G FGA | [DFB]3 [D^Fc]3 | [DGBd]3 [C=EB]3 | [CEAc]6- | [CEAc]6 | B3 A3 | [B,EG]2 A GFD | %34
w: |||||||
w: One vic- to- ri- ous,|Praise His|ho- ly|name.||Praise Him,|heav’n- ly com- pa- ny,|
w: |||||||
 [B,-D-F]3 [B,DG]2 G | [B,DF]6 | B3 A3 | [B,DG]2 A GFD | ([A,EF]3 F2) G | [A,EF]6 | %40
w: ||||||
w: an- * gels|bright;|Crown Him|now and ev- er- more,|Lord * of|light;|
w: ||||||
 [^Fd]2 [Fe] [Fd]2 [FA] | [Gc]3 [GB]3 | [=Ec]2 [Ed] [Ec]2 [EG] | [FB]3 [FA]3 | FGA Bcd | %45
w: |||||
w: Praise Him, all cre-|a- tion,|God of our sal-|va- tion;|Bound- less in ma- jes- ty,|
w: |||||
 e2 G [Gd]2 [Gc] | [FB]3 [EA]3 | [DB]6 |] %48
w: |||
w: King e- ter- nal;|Praise His|name.|
w: |||
V:2
 x6 | x6 | x6 | x6 | x6 | x6 | x6 | x6 | x7 | G6 | x6 | F6 | FGA Bcd | e2 G x3 | x6 | x6 || x6 | %17
 x2 A GFD | x3 [B,D]3 | x6 | [DF]6 | [B,E]3 GFD | x3 [A,E]3 | x6 | x6 | x2 A GAB | x6 | x2 G FGA | %28
 x6 | x6 | x6 | x6 | [DF]6 | x2 A GFD | x5 G | x6 | [DF]6 | x2 A GFD | x3 [A,E]3 | x6 | x6 | x6 | %42
 x6 | x6 | FGA Bcd | e2 G x3 | x6 | x6 |] %48
V:3
 [B,,B,]2 [B,,B,] [B,,B,]2 [B,,B,] | [B,,B,]2 [B,,F,] [B,,B,]3 | %2
 [E,G,][E,G,][E,B,] [E,_G,][E,G,][E,B,] | [B,,B,]6 | [B,,B,]2 [B,,B,] [B,,B,]2 [B,,B,] | %5
 [B,,B,]2 [B,,F,] [B,,B,]3 | [C,G,][C,G,][C,A,] [C,B,][C,A,][C,G,] | [F,A,]6 | %8
 [D,A,]2 [D,A,] [D,A,]2 [D,D] x | [G,D]6 | [C,C]2 [C,C] [C,C]2 [C,B,] | D3 C3 | F,G,A, B,CD | %13
 E2 G, [E,E]2 [E,E] | D3 C3 | [B,,B,]6 || B,3 A,3 | G,2 A, G,F,D, | (F,3 B,,3) | (F,,3 F,3) | %20
 B,3 A,3 | G,2 A, G,F,D, | (F,3 C,3) | (F,,3 F,3) | B,3 A,3 | G,2 ^F, G,A,B, | A,3 G,3 | %27
 F,2 =E, F,G,A, | B,3 A,3 | G,3 _G,3 | (F,3 _G,3 | F,^F,G,A,G,=F,) | B,3 A,3 | G,2 A, G,F,D, | %34
 F,3 B,,3 | (F,,3 F,3) | B,3 A,3 | G,2 A, G,F,D, | (F,3 C,3) | (F,,3 F,3) | %40
 [D,A,]2 [D,A,] [D,A,]2 [D,D] | [G,D]3 [G,D]3 | [C,C]2 [C,C] [C,C]2 [C,C] | [F,D]3 [F,C]3 | %44
 F,G,A, B,CD | E2 G, [E,F]2 [E,F] | [F,E]3 [F,C]3 | [B,,B,]6 |] %48
V:4
 x6 | x6 | x6 | x6 | x6 | x6 | x6 | x6 | x7 | x6 | x6 | F,6 | F,G,A, B,CD | E2 G, x3 | F,6 | x6 || %16
 x6 | x6 | x6 | x6 | x6 | x6 | x6 | x6 | x6 | x6 | x6 | x6 | x6 | x6 | x6 | x6 | x6 | x6 | x6 | %35
 x6 | x6 | x6 | x6 | x6 | x6 | x6 | x6 | x6 | F,G,A, B,CD | E2 G, x3 | x6 | x6 |] %48

